X:1
T:Meet Me at the Fountain
T:Meet Me at the Fountain
T:Philip Paul Bliss
T:Philip Paul Bliss, 1873
T:Public Domain Courtesy of the Cyber Hymnal™
T:Public Domain Courtesy of the Cyber Hymnal™
C:Philip Paul Bliss
Z:Public Domain
Z:Courtesy of the Cyber Hymnal™
%%score ( 1 2 ) 3 ( 4 5 )
L:1/8
Q:1/4=100
M:4/4
K:Ab
V:1 treble 
V:2 treble 
V:3 treble 
V:4 bass 
V:5 bass 
V:1
 E2 A2 A>G A>c | B4 F4 | G2 F2 E>d c>B | c6 z2 | E2 A2 A>G A>c | B4 F4 | G2 F2 Ed c>B | A6 z2 | %8
w: 1.~Will you meet me at the|foun- tain,|When I reach the glo- ry|land?|Will you meet me at the|foun- tain?|Shall I clasp your friend- ly|hand?|
w: 2.~Will you meet me at the|foun- tain?|For I’m sure that I shall|know|Kin- dred souls and sweet com-|mun- ion,|More than I have known be-|low.|
w: 3.~Will you meet me at the|foun- tain?|I shall long to have you|near,|When I meet my lov- ing|Sav- ior,|When His wel- come words I|hear.|
 A2 F2 F>G A>B | c4 G4 | A2 F2 F>G A>c | B6 z2 | E2 A2 A>G A>c | B4 F4 | G2 F2 E!fermata!d c>B | %15
w: O- ther friends will give me|wel- come,|O- ther lov- ing voic- es|cheer;|There’ll be mu- sic at the|foun- tain;|Will you, will you meet me|
w: And the chor- us will be|sweet- er,|When it bursts up- on my|ear,|And my Hea- ven seem com-|plet- er,|If your hap- py voice I|
w: He will meet me at the|foun- tain;|His em- brac- es I shall|share;|There’ll be glo- ry at the|foun- tain;|Will you, will you meet me|
 A6 z2 ||"^Refrain" [FA]2 [Fd]2 [Fd]>[Fd] [FA]>[FB] | [=Ec]4 [EG]4 | %18
w: there?|||
w: hear.|Yes, I’ll meet you at the|foun- tain,|
w: there?|||
 [FA]2 F2 [=DF]>[DG] [DA]>[Dc] | B6 x2 | E2 A2 A>G [CA]>[Ec] | [DB]4 [DF]4 | %22
w: ||||
w: At the foun- tain bright and|fair;|Oh, I’ll meet you at the|foun- tain,|
w: ||||
 [B,G]2 [EF]2 E!fermata![Ed]"^riten." [Ec]>[DB] | [CA]4 |] %24
w: ||
w: Yes, I’ll meet you, meet you|there.|
w: ||
V:2
 x8 | x8 | x8 | x8 | x8 | x8 | x8 | x8 | x8 | x8 | x8 | x8 | x8 | x8 | x8 | x8 || x8 | x8 | %18
 x2 F2 x4 | (E2 EEGFED) | C4 C2 x2 | x8 | x4 E x3 | x4 |] %24
V:3
 z2 [CE]2 [CE]2 [CE]2 | z2 [DF]2 ([DF]2 [DF]2) | z2 [CDEG]2 z2 [CDEG]2 | %3
 z2 ([CEA]2 [CEA]2 [CEA]2) | z2 [CE]2 [CE]2 [CE]2 | z2 [DF]2 ([DF]2 [DF]2) | %6
 z2 [B,DEG]2 z2 [B,DEG]2 | z2 ([CEA]2 [CEA]2 [CEA]2) | z C ([FA]C) z C[FA]C | %9
 z (C[=EG]C) z (C[EG]C) | z C ([FA]C) z C[=DFA]C | z2 ([B,EG]2 GFED) | z2 [CE]2 [CE]2 [CE]2 | %13
 z2 [DF]2 ([DF]2 [DF]2) | z2 [DEG]2 !fermata![DEG]4 | z2 ([CEA]2 [CEA]2 [CEA]2) || x8 | x8 | x8 | %19
 x8 | x8 | x8 | x8 | x4 |] %24
V:4
 [A,,,A,,]6 z2 | [D,,D,]6 z2 | [E,,E,]4 [E,,E,]4 | [A,,,A,,]6 z2 | [A,,,A,,]6 z2 | [D,,D,]6 z2 | %6
 [E,,E,]4 [E,,E,]4 | [A,,A,]6 z2 | [F,,F,]4 [F,,F,]4 | [C,,C,]4 [C,,C,]4 | [F,,F,]4 [B,,,B,,]4 | %11
 ([E,,E,]4 E,D,C,B,,) | [A,,,A,,]6 z2 | [D,,D,]6 z2 | [E,,E,]4 !fermata![E,,E,]4 | [A,,,A,,]6 z2 || %16
 [D,A,]2 [D,A,]2 [D,A,]>[D,A,] [D,F,]>[D,F,] | [C,G,]4 [C,C]4 | %18
 [F,C]2 [F,A,]2 [B,,A,]>[B,,G,] [B,,F,]>[B,,A,] | G,6 x2 | A,2 E,2 E,>E, [A,,E,]>[A,,E,] | %21
 [D,F,]4 [D,B,]4 | [E,B,]2 [E,A,]2 [E,G,]!fermata![E,B,] [E,A,]>E, | [A,,E,]4 |] %24
V:5
 x8 | x8 | x8 | x8 | x8 | x8 | x8 | x8 | x8 | x8 | x8 | x8 | x8 | x8 | x8 | x8 || x8 | x8 | x8 | %19
 (E,2 E,E,E,D,C,B,,) | A,,4 A,,2 x2 | x8 | x15/2 E,/ | x4 |] %24

